X: 1629
T: Anne Marie Barrie
R: jig
M: 6/8
K: Dmajor
g|:fec d2A|BdB Ade|fed f2d|Bee eag|
fec d2A|BdB AFD|EFG ABc|dfe d2g:|
|:faa a2g|fag fed|faa a2f|gfg efg|
faa a2g|fag fed|Bcf ef^g|1 aec d2g:|2 aec d2||

